svg/fluentui-system-icons/ic_fluent_beaker_edit_20_filled.svg

<svg width="20" height="20" viewBox="0 0 20 20" fill="none" xmlns="http://www.w3.org/2000/svg">
<path d="M5.24987 3V7.74704C5.24987 8.15896 5.14809 8.5645 4.95357 8.9276L4.11121 10.5H11.8885L11.0462 8.9276C10.8517 8.5645 10.7499 8.15896 10.7499 7.74704V3H11.4999C11.776 3 11.9999 2.77614 11.9999 2.5C11.9999 2.22386 11.776 2 11.4999 2H4.49988C4.22374 2 3.99988 2.22386 3.99988 2.5C3.99988 2.77614 4.22374 3 4.49988 3H5.24987ZM12.4243 11.5H3.57549L2.34783 13.7916C1.81252 14.7909 2.53644 15.9999 3.67005 15.9999H9.47468C9.62722 15.4987 9.90091 15.0417 10.2726 14.6701L12.7795 12.1631L12.4243 11.5ZM10.9798 15.3772L15.8092 10.5478C16.5395 9.81741 17.7237 9.81741 18.454 10.5478C19.1843 11.2781 19.1843 12.4622 18.454 13.1926L13.6246 18.022C13.343 18.3036 12.9902 18.5033 12.6039 18.5999L11.106 18.9744C10.4546 19.1372 9.86451 18.5472 10.0274 17.8958L10.4018 16.3979C10.4984 16.0116 10.6982 15.6588 10.9798 15.3772Z" fill="#212121"/>
</svg>

<svg xmlns="http://www.w3.org/2000/svg" width="20" height="20"><path d="M5.25 3v4.747a2.5 2.5 0 0 1-.296 1.18L4.11 10.5h7.778l-.843-1.572a2.5 2.5 0 0 1-.296-1.181V3h.75a.5.5 0 0 0 0-1h-7a.5.5 0 0 0 0 1h.75Zm7.174 8.5H3.575l-1.227 2.292A1.5 1.5 0 0 0 3.67 16h5.805c.152-.501.426-.958.798-1.33l2.507-2.507-.356-.663Zm-1.444 3.877 4.83-4.83a1.87 1.87 0 1 1 2.644 2.646l-4.83 4.829a2.197 2.197 0 0 1-1.02.578l-1.498.374a.89.89 0 0 1-1.079-1.078l.375-1.498a2.18 2.18 0 0 1 .578-1.02Z"/></svg>
